X:15
T:Barge Inn
R:reel
C:Paddy O'Brien
B:The Compositions of Paddy O'Brien
D:i. Christy Barry, Connor McCarthy-Late in the Night,ii. John Carty
S:Clare FM
Z:psc -  http://www.cranfordpub.com
L:1/8
Q:333
M:C|
K:Dmix
z|dcAc d2 =fe|dcAG EDEB|cG ~G2 cded|cdeg afge|
dcAc d2 =fe|dcAG EDEB|cG ~G2 cdeg|agec Add:|
|:c|d2 ed adce|defg ageB|c2 ed cAGB|cG ~G2 cGec|
d2 ed adce|defg ageB|cG ~G2 cdeg|agec Add:|
